X:572
T:We're No Awa Tae Bide Awa
Z:Jack Campin, http://www.campin.me.uk/
F:Jack Campin's Nine-Note Tunebook
% last edit 07-03-2013
M:4/4
L:1/8
Q:1/4=120
K:C
D|E3 G (FE)(DC)|E2C2 C3\
G|c3 d (cB)(AG)|A4   G3
G|c2c2  c3   E |F2A2 G3\
G|A2G2  c2  E2 |D4   C3|]

